public/icons/hand.svg

<svg width="24" height="24" viewBox="0 0 24 24" fill="none" xmlns="http://www.w3.org/2000/svg">
	<path d="M3 10.2342L3.74721 10.1696C3.71261 9.76945 3.36893 9.46758 2.96767 9.4849C2.5664 9.50221 2.25 9.83256 2.25 10.2342H3ZM20.2361 12.0574L19.5306 16.1371L21.0087 16.3928L21.7142 12.313L20.2361 12.0574ZM13.245 21.25H8.59635V22.75H13.245V21.25ZM7.68498 20.4125L6.87282 11.0198L5.3784 11.149L6.19056 20.5417L7.68498 20.4125ZM19.5306 16.1371C19.0238 19.0677 16.3813 21.25 13.245 21.25V22.75C17.0712 22.75 20.3708 20.081 21.0087 16.3928L19.5306 16.1371ZM13.2548 5.10015L12.5921 9.14472L14.0724 9.38725L14.7351 5.34269L13.2548 5.10015ZM7.18773 10.2456L8.62647 9.00585L7.64729 7.86954L6.20855 9.10933L7.18773 10.2456ZM11.244 4.97206L11.7197 3.13821L10.2678 2.76157L9.79208 4.59542L11.244 4.97206ZM12.4382 2.77841L12.5832 2.82498L13.042 1.39687L12.897 1.3503L12.4382 2.77841ZM10.5235 6.81599C10.8354 6.23198 11.0777 5.61339 11.244 4.97206L9.79208 4.59542C9.65573 5.12107 9.45699 5.62893 9.20042 6.10924L10.5235 6.81599ZM12.5832 2.82498C12.8896 2.92342 13.1072 3.16009 13.1787 3.43584L14.6307 3.05921C14.4252 2.26719 13.819 1.64648 13.042 1.39687L12.5832 2.82498ZM11.7197 3.13821C11.7548 3.0032 11.8523 2.87913 11.9998 2.80804L11.3486 1.45675C10.8166 1.71309 10.417 2.18627 10.2678 2.76157L11.7197 3.13821ZM11.9998 2.80804C12.1345 2.74311 12.2931 2.73181 12.4382 2.77841L12.897 1.3503C12.3873 1.18655 11.8312 1.2242 11.3486 1.45675L11.9998 2.80804ZM14.1537 10.9842H19.3348V9.4842H14.1537V10.9842ZM4.71881 21.4061L3.74721 10.1696L2.25279 10.2988L3.22439 21.5353L4.71881 21.4061ZM3.75 21.5127V10.2342H2.25V21.5127H3.75ZM3.22439 21.5353C3.2112 21.3828 3.33146 21.25 3.48671 21.25V22.75C4.21268 22.75 4.78122 22.1279 4.71881 21.4061L3.22439 21.5353ZM14.7351 5.34269C14.8596 4.58256 14.8241 3.80478 14.6307 3.05921L13.1787 3.43584C13.3197 3.97923 13.3456 4.54612 13.2548 5.10015L14.7351 5.34269ZM8.59635 21.25C8.12244 21.25 7.72601 20.887 7.68498 20.4125L6.19056 20.5417C6.29852 21.7902 7.3427 22.75 8.59635 22.75V21.25ZM8.62647 9.00585C9.30632 8.42 10.0392 7.72267 10.5235 6.81599L9.20042 6.10924C8.85404 6.75767 8.3025 7.30493 7.64729 7.86954L8.62647 9.00585ZM21.7142 12.313C21.9695 10.8365 20.8341 9.4842 19.3348 9.4842V10.9842C19.9014 10.9842 20.3332 11.4959 20.2361 12.0574L21.7142 12.313ZM3.48671 21.25C3.63292 21.25 3.75 21.3684 3.75 21.5127H2.25C2.25 22.1953 2.80289 22.75 3.48671 22.75V21.25ZM12.5921 9.14472C12.4344 10.1076 13.1766 10.9842 14.1537 10.9842V9.4842C14.1038 9.4842 14.0639 9.43901 14.0724 9.38725L12.5921 9.14472ZM6.87282 11.0198C6.8474 10.7258 6.96475 10.4378 7.18773 10.2456L6.20855 9.10933C5.62022 9.61631 5.31149 10.3753 5.3784 11.149L6.87282 11.0198Z" fill="#262626"/>
</svg>

<svg xmlns="http://www.w3.org/2000/svg" width="24" height="24" fill="none"><path fill="#262626" d="m3 10.234.747-.064a.75.75 0 0 0-1.497.064H3Zm17.236 1.823-.705 4.08 1.478.256.705-4.08-1.478-.256Zm-6.991 9.193H8.596v1.5h4.649v-1.5Zm-5.56-.837-.812-9.393-1.495.129.813 9.393 1.494-.13Zm11.846-4.276c-.507 2.93-3.15 5.113-6.286 5.113v1.5c3.826 0 7.126-2.669 7.764-6.357l-1.478-.256ZM13.255 5.1l-.663 4.045 1.48.242.663-4.044-1.48-.243Zm-6.067 5.146 1.438-1.24-.979-1.136L6.21 9.11l.979 1.136Zm4.056-5.274.476-1.834-1.452-.376-.476 1.833 1.452.377Zm1.194-2.194.145.047.459-1.428-.145-.047-.459 1.428Zm-1.915 4.038a8.378 8.378 0 0 0 .721-1.844l-1.452-.377A6.878 6.878 0 0 1 9.2 6.11l1.324.707Zm2.06-3.991a.885.885 0 0 1 .596.61l1.452-.376a2.385 2.385 0 0 0-1.589-1.662l-.459 1.428Zm-.863.313a.515.515 0 0 1 .28-.33l-.651-1.351c-.532.256-.932.73-1.081 1.305l1.452.376Zm.28-.33a.596.596 0 0 1 .438-.03l.459-1.428a2.096 2.096 0 0 0-1.548.107l.65 1.351Zm2.154 8.176h5.18v-1.5h-5.18v1.5ZM4.719 21.406 3.747 10.17l-1.494.129.971 11.236 1.495-.129Zm-.969.107V10.234h-1.5v11.279h1.5Zm-.526.022a.263.263 0 0 1 .263-.285v1.5c.726 0 1.294-.622 1.232-1.344l-1.495.13ZM14.735 5.343a5.533 5.533 0 0 0-.104-2.284l-1.452.377a4.03 4.03 0 0 1 .076 1.664l1.48.243ZM8.596 21.25a.916.916 0 0 1-.911-.837l-1.494.129a2.416 2.416 0 0 0 2.405 2.208v-1.5Zm.03-12.244c.68-.586 1.413-1.283 1.898-2.19L9.2 6.109c-.346.649-.897 1.196-1.553 1.76l.98 1.137Zm13.088 3.307a2.416 2.416 0 0 0-2.38-2.829v1.5c.567 0 1 .512.902 1.073l1.478.256ZM3.487 21.25c.146 0 .263.118.263.263h-1.5c0 .682.553 1.237 1.237 1.237v-1.5Zm9.105-12.105a1.583 1.583 0 0 0 1.562 1.84v-1.5a.083.083 0 0 1-.082-.098l-1.48-.242Zm-5.72 1.875a.918.918 0 0 1 .316-.774l-.98-1.137a2.418 2.418 0 0 0-.83 2.04l1.495-.13Z"/></svg>
